X:1
T:The Flying Cloud
M:4/4
L:1/4
K:A
 z2 z E| A3/2 G/2 F E| A C E A,| C B, A, G,| A,2 z c/2c/2| c A d c|\
 B/2 A3/2 c B| A3/2 E/2 C D| E2 z A| c A d c| B/2 A3/2 c B| A E C D|\
 E2 z E| A c BA/2-G/2| A3/2 A,/2 DC/2-D/2| E D/2B,/2 A, G,| A,2 z2|\
